X: 190
T: O! Sweet Adare
N:"Slow"
B:O'Neill's 190
Z:Transcribed by henrik.norbeck@mailbox.swipnet.se
M:3/4
L:1/8
K:Dm
A de|f2 ed d>c|A3 G ^FG|A>G ^FA G>=F|D3 A de|
f2 ed cA|Ha3 g fe|d>f ed ^ce|d3||
a ag|f>g af gf|e>f ge fe|d>f ed d^c|A3 G ^FG|
A=B cA d^c|d>e Ha>g fe|d>f ed ^ce|d3||


